symbols/web/no_accounts/materialsymbolsoutlined/no_accounts_grad200_40px.svg

<svg xmlns="http://www.w3.org/2000/svg" height="40" width="40"><path d="m25.375 19-8.75-8.792q.667-.458 1.542-.729.875-.271 1.833-.271 2.708 0 4.562 1.855 1.855 1.854 1.855 4.604 0 .916-.25 1.771-.25.854-.792 1.562ZM9.083 28.875q2.417-1.792 5.125-2.771 2.709-.979 5.792-.979 1 0 1.854.146.854.146 1.438.354l-3.542-3.583q-2.708-.209-4.271-1.771-1.562-1.563-1.854-4.271l-4.708-4.708q-1.459 1.875-2.209 4.041-.75 2.167-.75 4.667 0 2.375.75 4.604t2.375 4.271Zm22.042-.208q1.417-1.75 2.167-3.959.75-2.208.75-4.708 0-5.917-4.063-9.979Q25.917 5.958 20 5.958q-2.667 0-4.812.771-2.146.771-3.855 2.104ZM20 37.542q-3.583 0-6.792-1.396Q10 34.75 7.625 32.375t-3.771-5.583Q2.458 23.583 2.458 20q0-3.625 1.396-6.812Q5.25 10 7.625 7.625 10 5.25 13.208 3.854 16.417 2.458 20 2.458q3.625 0 6.812 1.396Q30 5.25 32.375 7.625 34.75 10 36.146 13.188q1.396 3.187 1.396 6.812 0 3.583-1.396 6.792Q34.75 30 32.375 32.375t-5.563 3.771Q23.625 37.542 20 37.542Zm0-3.5q2.292 0 4.292-.625t3.958-2.042q-1.958-1.333-3.979-2.042-2.021-.708-4.271-.708t-4.292.708q-2.041.709-3.958 2.084 1.958 1.333 3.958 1.979 2 .646 4.292.646Zm0-2.709Z"/></svg>

<svg xmlns="http://www.w3.org/2000/svg" height="40" width="40"><path d="M25.375 19 16.625 10.208Q17.292 9.75 18.167 9.479Q19.042 9.208 20 9.208Q22.708 9.208 24.562 11.063Q26.417 12.917 26.417 15.667Q26.417 16.583 26.167 17.438Q25.917 18.292 25.375 19ZM9.083 28.875Q11.5 27.083 14.208 26.104Q16.917 25.125 20 25.125Q21 25.125 21.854 25.271Q22.708 25.417 23.292 25.625L19.75 22.042Q17.042 21.833 15.479 20.271Q13.917 18.708 13.625 16L8.917 11.292Q7.458 13.167 6.708 15.333Q5.958 17.5 5.958 20Q5.958 22.375 6.708 24.604Q7.458 26.833 9.083 28.875ZM31.125 28.667Q32.542 26.917 33.292 24.708Q34.042 22.5 34.042 20Q34.042 14.083 29.979 10.021Q25.917 5.958 20 5.958Q17.333 5.958 15.188 6.729Q13.042 7.5 11.333 8.833ZM20 37.542Q16.417 37.542 13.208 36.146Q10 34.75 7.625 32.375Q5.25 30 3.854 26.792Q2.458 23.583 2.458 20Q2.458 16.375 3.854 13.188Q5.25 10 7.625 7.625Q10 5.25 13.208 3.854Q16.417 2.458 20 2.458Q23.625 2.458 26.812 3.854Q30 5.25 32.375 7.625Q34.75 10 36.146 13.188Q37.542 16.375 37.542 20Q37.542 23.583 36.146 26.792Q34.75 30 32.375 32.375Q30 34.75 26.812 36.146Q23.625 37.542 20 37.542ZM20 34.042Q22.292 34.042 24.292 33.417Q26.292 32.792 28.25 31.375Q26.292 30.042 24.271 29.333Q22.25 28.625 20 28.625Q17.75 28.625 15.708 29.333Q13.667 30.042 11.75 31.417Q13.708 32.75 15.708 33.396Q17.708 34.042 20 34.042ZM20 31.333Q20 31.333 20 31.333Q20 31.333 20 31.333Q20 31.333 20 31.333Q20 31.333 20 31.333Q20 31.333 20 31.333Q20 31.333 20 31.333Q20 31.333 20 31.333Q20 31.333 20 31.333Z"/></svg>
